packages/icons/raw/imported/TravelBed.svg

<svg width="32" height="32" viewBox="0 0 32 32" fill="none" xmlns="http://www.w3.org/2000/svg">
<path d="M24.3 13.5172C24.3 13.7934 24.5239 14.0172 24.8 14.0172C25.0761 14.0172 25.3 13.7934 25.3 13.5172H24.3ZM6.7 13.5172C6.7 13.7934 6.92386 14.0172 7.2 14.0172C7.47614 14.0172 7.7 13.7934 7.7 13.5172H6.7ZM7.7 21.7931C7.7 21.517 7.47614 21.2931 7.2 21.2931C6.92386 21.2931 6.7 21.517 6.7 21.7931H7.7ZM6.7 24C6.7 24.2761 6.92386 24.5 7.2 24.5C7.47614 24.5 7.7 24.2761 7.7 24H6.7ZM25.3 21.7931C25.3 21.517 25.0761 21.2931 24.8 21.2931C24.5239 21.2931 24.3 21.517 24.3 21.7931H25.3ZM24.3 24C24.3 24.2761 24.5239 24.5 24.8 24.5C25.0761 24.5 25.3 24.2761 25.3 24H24.3ZM9.45 13.5172C9.45 13.7934 9.67386 14.0172 9.95 14.0172C10.2261 14.0172 10.45 13.7934 10.45 13.5172H9.45ZM13.85 13.5172C13.85 13.7934 14.0739 14.0172 14.35 14.0172C14.6261 14.0172 14.85 13.7934 14.85 13.5172H13.85ZM17.15 13.5172C17.15 13.7934 17.3739 14.0172 17.65 14.0172C17.9261 14.0172 18.15 13.7934 18.15 13.5172H17.15ZM21.55 13.5172C21.55 13.7934 21.7739 14.0172 22.05 14.0172C22.3261 14.0172 22.55 13.7934 22.55 13.5172H21.55ZM6.1 16.2241H25.9V15.2241H6.1V16.2241ZM26.5 16.8276V20.1379H27.5V16.8276H26.5ZM25.9 20.7414H6.1V21.7414H25.9V20.7414ZM5.5 20.1379V16.8276H4.5V20.1379H5.5ZM6.1 20.7414C5.7701 20.7414 5.5 20.4727 5.5 20.1379H4.5C4.5 21.022 5.21487 21.7414 6.1 21.7414V20.7414ZM26.5 20.1379C26.5 20.4727 26.2299 20.7414 25.9 20.7414V21.7414C26.7851 21.7414 27.5 21.022 27.5 20.1379H26.5ZM25.9 16.2241C26.2299 16.2241 26.5 16.4928 26.5 16.8276H27.5C27.5 15.9435 26.7851 15.2241 25.9 15.2241V16.2241ZM6.1 15.2241C5.21487 15.2241 4.5 15.9435 4.5 16.8276H5.5C5.5 16.4928 5.7701 16.2241 6.1 16.2241V15.2241ZM9.4 8.5H22.6V7.5H9.4V8.5ZM24.3 10.2069V13.5172H25.3V10.2069H24.3ZM7.7 13.5172V10.2069H6.7V13.5172H7.7ZM22.6 8.5C23.5374 8.5 24.3 9.26273 24.3 10.2069H25.3C25.3 8.7134 24.0926 7.5 22.6 7.5V8.5ZM9.4 7.5C7.90736 7.5 6.7 8.7134 6.7 10.2069H7.7C7.7 9.26273 8.46259 8.5 9.4 8.5V7.5ZM6.7 21.7931V24H7.7V21.7931H6.7ZM24.3 21.7931V24H25.3V21.7931H24.3ZM10.45 13.5172V11.8621H9.45V13.5172H10.45ZM11.05 11.2586H13.25V10.2586H11.05V11.2586ZM13.85 11.8621V13.5172H14.85V11.8621H13.85ZM13.25 11.2586C13.5799 11.2586 13.85 11.5273 13.85 11.8621H14.85C14.85 10.978 14.1351 10.2586 13.25 10.2586V11.2586ZM10.45 11.8621C10.45 11.5273 10.7201 11.2586 11.05 11.2586V10.2586C10.1649 10.2586 9.45 10.978 9.45 11.8621H10.45ZM18.15 13.5172V11.8621H17.15V13.5172H18.15ZM18.75 11.2586H20.95V10.2586H18.75V11.2586ZM21.55 11.8621V13.5172H22.55V11.8621H21.55ZM20.95 11.2586C21.2799 11.2586 21.55 11.5273 21.55 11.8621H22.55C22.55 10.978 21.8351 10.2586 20.95 10.2586V11.2586ZM18.15 11.8621C18.15 11.5273 18.4201 11.2586 18.75 11.2586V10.2586C17.8649 10.2586 17.15 10.978 17.15 11.8621H18.15Z" fill="black"/>
</svg>

<svg width="32" height="32" fill="none" xmlns="http://www.w3.org/2000/svg"><path d="M24.3 13.517a.5.5 0 1 0 1 0h-1Zm-17.6 0a.5.5 0 1 0 1 0h-1Zm1 8.276a.5.5 0 0 0-1 0h1ZM6.7 24a.5.5 0 0 0 1 0h-1Zm18.6-2.207a.5.5 0 0 0-1 0h1ZM24.3 24a.5.5 0 0 0 1 0h-1ZM9.45 13.517a.5.5 0 1 0 1 0h-1Zm4.4 0a.5.5 0 1 0 1 0h-1Zm3.3 0a.5.5 0 1 0 1 0h-1Zm4.4 0a.5.5 0 1 0 1 0h-1ZM6.1 16.224h19.8v-1H6.1v1Zm20.4.604v3.31h1v-3.31h-1Zm-.6 3.913H6.1v1h19.8v-1Zm-20.4-.603v-3.31h-1v3.31h1Zm.6.603c-.33 0-.6-.268-.6-.603h-1c0 .884.715 1.603 1.6 1.603v-1Zm20.4-.603c0 .335-.27.603-.6.603v1c.885 0 1.6-.719 1.6-1.603h-1Zm-.6-3.914c.33 0 .6.269.6.604h1c0-.884-.715-1.604-1.6-1.604v1Zm-19.8-1c-.885 0-1.6.72-1.6 1.604h1c0-.335.27-.604.6-.604v-1ZM9.4 8.5h13.2v-1H9.4v1Zm14.9 1.707v3.31h1v-3.31h-1Zm-16.6 3.31v-3.31h-1v3.31h1ZM22.6 8.5c.937 0 1.7.763 1.7 1.707h1A2.703 2.703 0 0 0 22.6 7.5v1Zm-13.2-1a2.703 2.703 0 0 0-2.7 2.707h1c0-.944.763-1.707 1.7-1.707v-1ZM6.7 21.793V24h1v-2.207h-1Zm17.6 0V24h1v-2.207h-1Zm-13.85-8.276v-1.655h-1v1.655h1Zm.6-2.258h2.2v-1h-2.2v1Zm2.8.603v1.655h1v-1.655h-1Zm-.6-.603c.33 0 .6.268.6.603h1c0-.884-.715-1.603-1.6-1.603v1Zm-2.8.603c0-.335.27-.603.6-.603v-1c-.885 0-1.6.719-1.6 1.603h1Zm7.7 1.655v-1.655h-1v1.655h1Zm.6-2.258h2.2v-1h-2.2v1Zm2.8.603v1.655h1v-1.655h-1Zm-.6-.603c.33 0 .6.268.6.603h1c0-.884-.715-1.603-1.6-1.603v1Zm-2.8.603c0-.335.27-.603.6-.603v-1c-.885 0-1.6.719-1.6 1.603h1Z" fill="#000"/></svg>
